static/img/kroki/44b7826dab7ec60fd30ba2e21d0a1fb6.svg

<?xml version="1.0" encoding="us-ascii" standalone="no"?><svg xmlns="http://www.w3.org/2000/svg" xmlns:xlink="http://www.w3.org/1999/xlink" contentStyleType="text/css" height="213px" preserveAspectRatio="none" style="width:210px;height:213px;" version="1.1" viewBox="0 0 210 213" width="210px" zoomAndPan="magnify"><defs/><g><!--class resource--><g id="elem_resource"><rect codeLine="23" fill="#3D176E" height="39.7891" id="resource" rx="2.5" ry="2.5" style="stroke:#000D19;stroke-width:0.5;" width="113" x="48.5" y="7"/><ellipse cx="63.5" cy="26.8945" fill="#ADD1B2" rx="11" ry="11" style="stroke:#181818;stroke-width:1.0;"/><path d="M66.4688,32.5352 Q65.8906,32.832 65.25,32.9727 Q64.6094,33.1289 63.9063,33.1289 Q61.4063,33.1289 60.0781,31.4883 Q58.7656,29.832 58.7656,26.707 Q58.7656,23.582 60.0781,21.9258 Q61.4063,20.2695 63.9063,20.2695 Q64.6094,20.2695 65.25,20.4258 Q65.9063,20.582 66.4688,20.8789 L66.4688,23.5977 Q65.8438,23.0195 65.25,22.7539 Q64.6563,22.4727 64.0313,22.4727 Q62.6875,22.4727 62,23.5508 Q61.3125,24.6133 61.3125,26.707 Q61.3125,28.8008 62,29.8789 Q62.6875,30.9414 64.0313,30.9414 Q64.6563,30.9414 65.25,30.6758 Q65.8438,30.3945 66.4688,29.8164 L66.4688,32.5352 Z " fill="#000000"/><text fill="#D9B8FF" font-family="Helvetica" font-size="17" lengthAdjust="spacing" textLength="71" x="82.5" y="32.7798">resource</text></g><!--class vsphere_datastore--><g id="elem_vsphere_datastore"><rect codeLine="26" fill="#3D176E" height="39.7891" id="vsphere_datastore" rx="2.5" ry="2.5" style="stroke:#000D19;stroke-width:0.5;" width="196" x="7" y="167.79"/><ellipse cx="22" cy="187.6845" fill="#ADD1B2" rx="11" ry="11" style="stroke:#181818;stroke-width:1.0;"/><path d="M24.9688,193.3252 Q24.3906,193.622 23.75,193.7627 Q23.1094,193.9189 22.4063,193.9189 Q19.9063,193.9189 18.5781,192.2783 Q17.2656,190.622 17.2656,187.497 Q17.2656,184.372 18.5781,182.7158 Q19.9063,181.0595 22.4063,181.0595 Q23.1094,181.0595 23.75,181.2158 Q24.4063,181.372 24.9688,181.6689 L24.9688,184.3877 Q24.3438,183.8095 23.75,183.5439 Q23.1563,183.2627 22.5313,183.2627 Q21.1875,183.2627 20.5,184.3408 Q19.8125,185.4033 19.8125,187.497 Q19.8125,189.5908 20.5,190.6689 Q21.1875,191.7314 22.5313,191.7314 Q23.1563,191.7314 23.75,191.4658 Q24.3438,191.1845 24.9688,190.6064 L24.9688,193.3252 Z " fill="#000000"/><text fill="#D9B8FF" font-family="Helvetica" font-size="17" lengthAdjust="spacing" textLength="154" x="41" y="193.5698">vsphere_datastore</text></g><!--reverse link resource to vsphere_datastore--><g id="link_resource_vsphere_datastore"><path codeLine="29" d="M105,65.05 C105,95.57 105,136.9 105,167.46 " fill="none" id="resource-backto-vsphere_datastore" style="stroke:#FFAF37;stroke-width:2.0;"/><polygon fill="none" points="105,47.05,99,65.05,111,65.05,105,47.05" style="stroke:#FFAF37;stroke-width:2.0;"/></g><!--SRC=[XT1DRuCm30RWExyYKiz8i6gZIBjqIDDsgQPrzyaGfqH0WXpJglluxojhLsNGZwlz97xjKaiKsBIy5GqsEP8BNALD2mIDc1FPJMPhIsAY5AXfCcm-MiDNmG8Q54zOhv5r0KFnLkgYCkYSkF5Q3r1KAxATaVllcS2uNGiDUoghmRavC-cyO_J2o3IVAJMKmqydKnadTpXYbYJIWKHH9EDqIAwEkhZtKIpr1uhOFzh2CevYZaRygeifU-6572twrp-RyGMar6ObRhtQwpuJ6QH_zMK9qcvwhQ1s_XZ7I6Xvss8ssWhJcLJ9IVny3WT5Vpf1w6n71OhF8FW-rDQkBNVltoKmEBPqQ1xf_LSOXcCL_000]--></g></svg>

<svg xmlns="http://www.w3.org/2000/svg" width="210" height="213" viewBox="0 0 210 213"><rect width="113" height="39.789" x="48.5" y="7" fill="#3D176E" rx="2.5" ry="2.5" style="stroke:#000d19;stroke-width:.5"/><circle cx="63.5" cy="26.895" r="11" fill="#ADD1B2" style="stroke:#181818;stroke-width:1"/><path d="M66.469 32.535q-.578.297-1.219.438-.64.156-1.344.156-2.5 0-3.828-1.64-1.312-1.657-1.312-4.782t1.312-4.781q1.328-1.656 3.828-1.656.703 0 1.344.156.656.156 1.219.453v2.719q-.625-.578-1.219-.844-.594-.281-1.219-.281-1.344 0-2.031 1.078-.687 1.062-.687 3.156T62 29.879q.688 1.062 2.031 1.062.625 0 1.219-.265.594-.281 1.219-.86z"/><text x="82.5" y="32.78" fill="#D9B8FF" font-family="Helvetica" font-size="17" textLength="71">resource</text><rect width="196" height="39.789" x="7" y="167.79" fill="#3D176E" rx="2.5" ry="2.5" style="stroke:#000d19;stroke-width:.5"/><circle cx="22" cy="187.685" r="11" fill="#ADD1B2" style="stroke:#181818;stroke-width:1"/><path d="M24.969 193.325q-.578.297-1.219.438-.64.156-1.344.156-2.5 0-3.828-1.64-1.312-1.657-1.312-4.782t1.312-4.781q1.328-1.656 3.828-1.656.703 0 1.344.156.656.156 1.219.453v2.719q-.625-.578-1.219-.844-.594-.281-1.219-.281-1.343 0-2.031 1.078-.687 1.062-.687 3.156t.687 3.172q.688 1.062 2.031 1.062.625 0 1.219-.265.594-.281 1.219-.86z"/><text x="41" y="193.57" fill="#D9B8FF" font-family="Helvetica" font-size="17" textLength="154">vsphere_datastore</text><path fill="none" d="M105 65.05v102.41m0-120.41-6 18h12z" style="stroke:#ffaf37;stroke-width:2"/></svg>
